!!!!SEGMENT: pl-cz--ii-40--004_brioschi-antonio--partita-b-rondo.krn
!!!cenid: 18xx:2477
!!!COM: Brioschi, Antonio
!!!COM-rismid: pe30000488
!!!CDT: <~1725-1750
!!!CNT: Italian
!!!OPR: Partita B
!!!OTL: Rondo
!!!OMV: 004
!!!PDT: 1800
!!!AGN: Secular; Partita
!!!SMS-siglum: PL-CZ
!!!SMS-shelfmark: II-40
!!!SMS-shelfwork: 001-004 M
!!!SMS-variant:
!!!SMS-altvar:
!!!NIFC-rismid: 300000049
!!!URL-scan: http://repozytorium.nifc.pl/skany/pl-cz-nut--ii-40
!!!ONB-nifc: UWAGA: części Partity: 1. Allegro moderato, 2. Menuett, 3. Adagio, 4. Rondo
**kern	**dynam	**kern	**dynam	**kern	**dynam	**kern	**kern	**dynam	**kern
*part6	*part6	*part5	*part5	*part4	*part4	*part3	*part2	*part2	*part1
*staff6	*	*staff5	*	*staff4	*	*staff3	*staff2	*	*staff1
*Iempty	*	*Iempty	*	*Ifagot	*	*Ifagot	*Iclars	*	*Iclars
*I"Cornu Secondo. in B.	*	*I"Cornu Primo. in B.	*	*I"Fagotto Secondo. in B.	*	*I"Fagotto Primo.	*I"Clarinetto Secondo in B	*	*I"Clarinetto Primo in B.
*I'cor 2	*	*I'cor 1	*	*I'fag 2	*	*I'fag 1	*I'cl 2	*	*I'cl 1
*>[A,A,B,B,C,C,D,D,A,A,B,B]	*>[A,A,B,B,C,C,D,D,A,A,B,B]	*>[A,A,B,B,C,C,D,D,A,A,B,B]	*>[A,A,B,B,C,C,D,D,A,A,B,B]	*>[A,A,B,B,C,C,D,D,A,A,B,B]	*>[A,A,B,B,C,C,D,D,A,A,B,B]	*>[A,A,B,B,C,C,D,D,A,A,B,B]	*>[A,A,B,B,C,C,D,D,A,A,B,B]	*>[A,A,B,B,C,C,D,D,A,A,B,B]	*>[A,A,B,B,C,C,D,D,A,A,B,B]
*>A	*>A	*>A	*>A	*>A	*>A	*>A	*>A	*>A	*>A
*clefG2	*	*clefG2	*	*clefF4	*	*clefF4	*clefG2	*	*clefG2
*ITrd1c2	*	*ITrd1c2	*	*	*	*	*ITrd1c2	*	*ITrd1c2
*k[b-e-]	*	*k[b-e-]	*	*k[b-e-]	*	*k[b-e-]	*k[b-e-]	*	*k[b-e-]
*B-:	*	*B-:	*	*B-:	*	*B-:	*B-:	*	*B-:
*M2/4	*	*M2/4	*	*M2/4	*	*M2/4	*M2/4	*	*M2/4
=1	=1	=1	=1	=1	=1	=1	=1	=1	=1
!	!	!	!LO:DY:rj:t=p&colon;	!LO:N:vis=0	!	!	!	!LO:DY:rj	!
4d/	.	4b-\	p	1r	.	4B-\	8.d/L	p	8.b-\L
.	.	.	.	.	.	.	16b-/Jk	.	16dd\Jk
!	!LO:DY:rj:t=p&colon;	!	!	!	!	!	!	!	!
4f/	p	4cc\	.	.	.	4F\	8a\L	.	8cc\L
.	.	.	.	.	.	.	8a\J	.	8cc\J
=2	=2	=2	=2	=2	=2	=2	=2	=2	=2
.	.	.	.	.	.	.	8qqcc/	.	.
8r	.	8r	.	.	.	8r	4b-\	.	4dd\
8d/	.	8b-\	.	.	.	8BB-/	.	.	.
4f/	.	4cc\	.	.	.	4F\	4a\	.	4cc\
=3	=3	=3	=3	=3	=3	=3	=3	=3	=3
4B-/	.	4b-\	.	8BB-/	.	4BB-/	16dd\LL	.	16ff\LL
.	.	.	.	.	.	.	16b-\	.	16dd\
.	.	.	.	4r	.	.	16gg\	.	(16bb-\
.	.	.	.	.	.	.	16ff\JJ	.	16aa\JJ)
8r	.	8r	.	.	.	8r	16ee-\LL	.	(16gg\LL
.	.	.	.	.	.	.	16dd\	.	16ff\
8d/	.	8b-\	.	8BB-/	.	8BB-/	16cc\	.	16ee-\
.	.	.	.	.	.	.	16b-\JJ	.	16dd\JJ)
=4	=4	=4	=4	=4	=4	=4	=4	=4	=4
!	!	!	!	!LO:TX:t=P:problem:mixed beam	!	!LO:TX:t=P:problem:mixed beam	!	!	!
8f/L	.	8cc\L	.	8F\L	.	8F\L	8a\L	.	8cc\L
8f/J	.	8cc\J	.	8C/J	.	8C/J	8a\J	.	8cc\J
8f/	.	4cc\	.	4FF/	.	4FF/	4a\	.	4cc\
8r	.	.	.	.	.	.	.	.	.
=5	=5	=5	=5	=5	=5	=5	=5	=5	=5
!	!	!	!	!LO:N:vis=0	!	!	!	!	!
4d/	.	4b-\	.	1r	.	4B-\	8.d/L	.	8.b-\L
.	.	.	.	.	.	.	16b-/Jk	.	16dd\Jk
4f/	.	4cc\	.	.	.	4F\	8a\L	.	8cc\L
.	.	.	.	.	.	.	8a\J	.	8cc\J
=6	=6	=6	=6	=6	=6	=6	=6	=6	=6
.	.	.	.	.	.	.	8qcc/	.	.
8r	.	8r	.	.	.	8r	4b-\	.	4dd\
8d/	.	8b-\	.	.	.	8BB-/	.	.	.
4f/	.	4cc\	.	.	.	4F\	4a\	.	4cc\
=7	=7	=7	=7	=7	=7	=7	=7	=7	=7
8B-/L	.	8b-\L	.	8BB-/L	f	8BB-/L	8dd\L	.	8ff\L
16B-/L	.	16b-\L	.	8E-/	.	8E-/	16ee-\L	.	16gg\L
16B-/JJ	.	16b-\JJ	.	.	.	.	16ee-\JJ	.	16gg\JJ
8B-/L	.	8b-\L	.	8BB-/	.	8BB-/	8dd\L	.	8ff\L
16B-/L	.	16b-\L	.	8E-/J	.	8E-/J	16ee-\L	.	16gg\L
16B-/JJ	.	16b-\JJ	.	.	.	.	16ee-\JJ	.	16gg\JJ
!	!	!	!	!	!	!	!	!	!LO:LB:g=original
=8	=8	=8	=8	=8	=8	=8	=8	=8	=8
!	!	!	!	!LO:TX:t=P:problem:mixed beam	!	!LO:TX:t=P:problem:mixed beam	!	!	!
8d/L	.	8b-\L	.	8F\L	.	8F\L	16dd\LL	.	(16ff\LL
.	.	.	.	.	.	.	16cc\	.	16ee-\
8f/J	.	8cc\J	.	8FF/J	.	8FF/J	16b-\	.	16dd\
.	.	.	.	.	.	.	16f\JJ	.	16cc\JJ)
4d/	.	4b-\	.	4BB-/	.	4BB-/	4d/	.	4b-\
!	!	!	!	!	!	!LO:LB:g=original	!LO:LB:g=original	!	!
=9:|!|:	=9:|!|:	=9:|!|:	=9:|!|:	=9:|!|:	=9:|!|:	=9:|!|:	=9:|!|:	=9:|!|:	=9:|!|:
*>B	*>B	*>B	*>B	*>B	*>B	*>B	*>B	*>B	*>B
!LO:TX:a:t=4	!	!	!	!	!	!	!LO:TX:a:t=4	!	!
!LO:N:vis=00	!	!LO:N:vis=00	!	!LO:N:vis=00	!	!	!LO:N:vis=00	!	!
0r	.	0r	.	0r	.	8A\L	0r	.	8cc|\L
.	.	.	.	.	.	8F\	.	.	(32dd\LL
.	.	.	.	.	.	.	.	.	32cc\
.	.	.	.	.	.	.	.	.	32b-\
.	.	.	.	.	.	.	.	.	32cc\JJJ)
.	.	.	.	.	.	8B-\	.	.	8dd|\L
.	.	.	.	.	.	8F\J	.	.	(32ee-\LL
.	.	.	.	.	.	.	.	.	32dd\
.	.	.	.	.	.	.	.	.	32cc\
.	.	.	.	.	.	.	.	.	32dd\JJJ)
=10	=10	=10	=10	=10	=10	=10	=10	=10	=10
.	.	.	.	.	.	8c\L	.	.	(16ff\LL
.	.	.	.	.	.	.	.	.	16ee-\
.	.	.	.	.	.	8F\	.	.	16dd\
.	.	.	.	.	.	.	.	.	16cc\JJ)
.	.	.	.	.	.	8B-\	.	.	8dd\L
.	.	.	.	.	.	8F\J	.	.	8dd\J
=11	=11	=11	=11	=11	=11	=11	=11	=11	=11
.	.	.	.	.	.	8A\L	.	.	16cc\LL
.	.	.	.	.	.	.	.	.	16cc\
.	.	.	.	.	.	8F\	.	.	(32dd\L
.	.	.	.	.	.	.	.	.	32cc\
.	.	.	.	.	.	.	.	.	32b-\
.	.	.	.	.	.	.	.	.	32cc\JJJ)
.	.	.	.	.	.	8B-\	.	.	16dd'\LL
.	.	.	.	.	.	.	.	.	16dd'\
.	.	.	.	.	.	8F\J	.	.	(32ee-\L
.	.	.	.	.	.	.	.	.	32dd\
.	.	.	.	.	.	.	.	.	32cc\
.	.	.	.	.	.	.	.	.	32dd\JJJ)
=12	=12	=12	=12	=12	=12	=12	=12	=12	=12
.	.	.	.	.	.	8c\L	.	.	(16ff\LL
.	.	.	.	.	.	.	.	.	16eeX\
.	.	.	.	.	.	8F\	.	.	16ee-\
.	.	.	.	.	.	.	.	.	16cc\JJ)
.	.	.	.	.	.	8A\	.	.	8cc#X\L
.	.	.	.	.	.	8B-\J	.	.	8dd\J
!LO:LB:g=original	!	!	!	!	!	!	!	!	!
=13	=13	=13	=13	=13	=13	=13	=13	=13	=13
!	!LO:DY:rj	!	!LO:DY:rj	!LO:N:vis=0	!	!	!	!	!
4d/	p	4b-\	p	1r	.	4BB-/	8.d/L	.	8.b-\L
.	.	.	.	.	.	.	16b-/Jk	.	16dd\Jk
4f/	.	4cc\	.	.	.	4F\	8a\L	.	8cc\L
.	.	.	.	.	.	.	8a\J	.	8cc\J
=14	=14	=14	=14	=14	=14	=14	=14	=14	=14
.	.	.	.	.	.	.	8qcc/	.	.
8r	.	8r	.	.	.	8r	4b-\	.	4dd\
8dL/	.	8b-\	.	.	.	8BB-/	.	.	.
8fJ/	.	4cc\	.	.	.	4F\	4a\	.	4cc\
8r	.	.	.	.	.	.	.	.	.
!	!	!LO:LB:g=original	!	!	!	!	!	!	!LO:LB:g=original
=15	=15	=15	=15	=15	=15	=15	=15	=15	=15
!	!LO:DY:rj	!	!LO:DY:t=f&colon;	!	!	!	!	!	!
8B-/L	f	8b-\L	f	8BB-/L	.	8BB-/L	8dd\L	.	8ff\L
16B-/L	.	16b-\L	.	8E-/	.	8E-/	16ee-\L	.	16gg\L
16B-/JJ	.	16b-\JJ	.	.	.	.	16ee-\JJ	.	16gg\JJ
8B-/L	.	8b-\L	.	8BB-/	.	8BB-/	8dd\L	.	8ff\L
16B-/L	.	16b-\L	.	8E-/J	.	8E-/J	16ee-\L	.	16gg\L
16B-/JJ	.	16b-\JJ	.	.	.	.	16ee-\JJ	.	16gg\JJ
=16	=16	=16	=16	=16	=16	=16	=16	=16	=16
!	!	!	!LO:DY:rj	!LO:TX:t=P:problem:mixed beam	!	!LO:TX:t=P:problem:mixed beam	!	!	!
8d/L	.	8b-\L	f	8F\L	.	8F\L	16dd\LL	.	(16ff\LL
.	.	.	.	.	.	.	16cc\	.	16ee-\
8f/J	.	8cc\J	.	8FF/J	.	8FF/J	16b-\	.	16dd\
.	.	.	.	.	.	.	16f\JJ	.	16cc\JJ)
4d/	.	4b-\	.	4BB-/	.	4BB-/	4d/	.	4b-\
!LO:LB:g=original	!	!LO:LB:g=original	!	!LO:LB:g=original	!	!LO:LB:g=original	!LO:LB:g=original	!	!LO:LB:g=original
=17:|!	=17:|!	=17:|!	=17:|!	=17:|!	=17:|!	=17:|!	=17:|!	=17:|!	=17:|!
*>C	*>C	*>C	*>C	*>C	*>C	*>C	*>C	*>C	*>C
*M2/4	*	*M2/4	*	*M2/4	*	*M2/4	*M2/4	*	*M2/4
!	!	!	!	!LO:TX:t=P:problem:mixed beam	!	!LO:TX:t=P:problem:mixed beam	!	!	!
!LO:TX:a:t=Trio	!	!LO:TX:a:t=Trio	!LO:DY:rj	!LO:TX:a:t=Trio	!	!LO:TX:a:t=Trio	!LO:TX:a:t=Trio	!	!LO:TX:a:t=Trio
4B-/	.	4b-\	p	8BB-/L	.	8BB-/L	8.b-\L	.	8.dd\L
.	.	.	.	8B-\	.	8B-\	.	.	.
.	.	.	.	.	.	.	16cc\K	.	16ee-\Jk
4r	.	4r	.	8BB-/	.	8BB-/	8dd\	.	8ff\L
.	.	.	.	8B-\J	.	8B-\J	8dd\J	.	8ff\J
=18	=18	=18	=18	=18	=18	=18	=18	=18	=18
!	!LO:DY:rj	!	!	!LO:TX:t=P:problem:mixed beam	!	!LO:TX:t=P:problem:mixed beam	!	!	!
4B-/	p	4b-\	.	8E-\L	.	8E-\L	16ee-\LL	.	(16gg\LL
.	.	.	.	.	.	.	16dd\	.	16ff\
.	.	.	.	8F\	.	8F\	16ee-\	.	16gg\
.	.	.	.	.	.	.	16dd\JJ	.	16aa\JJ)
4r	.	4r	.	8BB-/	.	8BB-/	8dd\L	.	8bb-\L
.	.	.	.	8B-\J	.	8B-\J	8dd\J	.	8bb-\J
=19	=19	=19	=19	=19	=19	=19	=19	=19	=19
*	*	*2\right	*	*	*	*	*	*	*
!	!	!	!	!LO:TX:t=P:problem:mixed beam	!	!LO:TX:t=P:problem:mixed beam	!	!	!
2d/	.	2b-\	.	8BB-/L	.	8BB-/L	8.b-\L	.	8.dd\L
.	.	.	.	8B-\J	.	8B-\	.	.	.
.	.	.	.	.	.	.	16cc\Jk	.	16ee-\Jk
.	.	.	.	4BB-/	.	8BB-/J	(16ee-\LL	.	(16gg\LL
.	.	.	.	.	.	.	16dd\	.	16ff\
.	.	.	.	.	.	8r	16cc\	.	16ee-\
.	.	.	.	.	.	.	16b-\JJ)	.	16dd\JJ)
=20	=20	=20	=20	=20	=20	=20	=20	=20	=20
!	!	!	!	!LO:TX:t=P:problem:mixed beam	!	!LO:TX:t=P:problem:mixed beam	!	!	!
8f/L	.	8cc\L	.	8FF/L	.	8FF/L	8a\L	.	8cc\L
8f/J	.	8cc\J	.	8F\J	.	8F\J	8a\J	.	8cc\J
4f/	.	4cc\	.	4FF/	.	4FF/	4a\	.	8cc\
.	.	.	.	.	.	.	.	.	8r
=21	=21	=21	=21	=21	=21	=21	=21	=21	=21
!	!	!	!	!LO:TX:t=P:problem:mixed beam	!	!LO:TX:t=P:problem:mixed beam	!	!	!
4B-/	.	4b-\	.	8BB-/L	.	8BB-/L	8.b-\	.	8.dd\L
.	.	.	.	8B-\	.	8B-\	.	.	.
.	.	.	.	.	.	.	16cc\	.	16ee-\Jk
4r	.	4r	.	8BB-/	.	8BB-/	8dd\L	.	8ff\L
.	.	.	.	8B-\J	.	8B-\J	8dd\J	.	8ff\J
=22	=22	=22	=22	=22	=22	=22	=22	=22	=22
!	!	!	!	!LO:TX:t=P:problem:mixed beam	!	!LO:TX:t=P:problem:mixed beam	!	!	!
4B-/	.	4b-\	.	8E-\L	.	8E-\L	16ee-\LL	.	16gg\LL
.	.	.	.	.	.	.	16dd\	.	16ff\
.	.	.	.	8F\	.	8F\	16ee-\	.	16gg\
.	.	.	.	.	.	.	16dd\JJ	.	16aa\JJ
4r	.	4r	.	8BB-/	.	8BB-/	8dd\L	.	8bb-\L
.	.	.	.	8B-\J	.	8B-\J	8dd\J	.	8bb-\J
!	!	!	!	!	!	!	!	!	!LO:LB:g=original
=23	=23	=23	=23	=23	=23	=23	=23	=23	=23
4d/	.	4b-\	.	4BB-/	.	4BB-/	8dd\L	.	8gg\L
.	.	.	.	.	.	.	16ee-\L	.	16gg\L
.	.	.	.	.	.	.	16dd\JJ	.	16ff\JJ
4r	.	4r	.	8r	.	8r	16dd\LL	.	16ff\LL
.	.	.	.	.	.	.	16cc\	.	16ee-\
.	.	.	.	8BB-/	.	8BB-/	16cc\	.	16ee-\
.	.	.	.	.	.	.	16b-\JJ	.	16dd\JJ
=24	=24	=24	=24	=24	=24	=24	=24	=24	=24
!	!	!	!	!LO:TX:t=P:problem:mixed beam	!	!LO:TX:t=P:problem:mixed beam	!	!	!
4d/	.	4b-\	.	8FF/L	.	8FF/L	4b-\	.	4dd\
.	.	.	.	8F\J	.	8F\J	.	.	.
4f/	.	4cc\	.	4FF/	.	4FF/	4a\	.	4cc\
!	!	!	!	!LO:LB:g=original	!	!LO:LB:g=original	!	!	!
=25:|!|:	=25:|!|:	=25:|!|:	=25:|!|:	=25:|!|:	=25:|!|:	=25:|!|:	=25:|!|:	=25:|!|:	=25:|!|:
*>D	*>D	*>D	*>D	*>D	*>D	*>D	*>D	*>D	*>D
!	!LO:DY:rj:t=f.	!	!	!	!	!	!	!	!
8B-/L	f	4b-\	f	16BB-\LL	.	16BB-\LL	8dd\L	.	8ff\L
.	.	.	.	16D\	.	16D\	.	.	.
8B-/J	.	.	.	16F\	.	16F\	8dd\J	.	8ff\J
.	.	.	.	16B-\JJ	.	16B-\JJ	.	.	.
4B-/	.	8b-\L	.	16G\LL	.	16G\LL	4ee-\	.	4gg\
.	.	.	.	16c\	.	16c\	.	.	.
.	.	8b-\J	.	16G\	.	16G\	.	.	.
.	.	.	.	16E-\JJ	.	16E-\JJ	.	.	.
=26	=26	=26	=26	=26	=26	=26	=26	=26	=26
8f/L	.	8cc\L	.	16F\LL	.	16F\LL	8cc\L	.	8aa\L
.	.	.	.	16c\	.	16c\	.	.	.
8f/J	.	8cc\J	.	16A\	.	16A\	8cc\J	.	8aa\J
.	.	.	.	16F\JJ	.	16F\JJ	.	.	.
4b-\	.	4dd\	.	16B-\LL	.	16B-\LL	4dd\	.	4bb-\
.	.	.	.	16F\	.	16F\	.	.	.
.	.	.	.	16D\	.	16D\	.	.	.
.	.	.	.	16BB-\JJ	.	16BB-\JJ	.	.	.
!	!	!	!	!	!	!	!LO:LB:g=original	!	!
=27	=27	=27	=27	=27	=27	=27	=27	=27	=27
!	!LO:DY:rj	!	!LO:DY:t=p&colon;	!	!	!	!	!	!
4B-/	p	4b-\	p	4E-\	.	4E-\	8.ee-\L	.	8.gg\L
.	.	.	.	.	.	.	16dd\Jk	.	16ff\Jk
4r	.	4r	.	8r	.	8r	(16dd\LL	.	(16ff\LL
.	.	.	.	.	.	.	16cc\	.	16ee-\
.	.	.	.	8En\	.	8En\	16cc\	.	16ee-\
.	.	.	.	.	.	.	16b-\JJ)	.	16dd\JJ)
=28	=28	=28	=28	=28	=28	=28	=28	=28	=28
!	!	!	!	!LO:TX:t=P:problem:mixed beam	!	!LO:TX:t=P:problem:mixed beam	!	!	!
4d/	.	4b-\	.	8F\L	.	8F\L	4b-\	.	4dd\
.	.	.	.	8FF/J	.	8FF/J	.	.	.
4f/	.	4cc\	.	4F\	.	4F\	4a\	.	4cc\
=29	=29	=29	=29	=29	=29	=29	=29	=29	=29
!	!	!	!	!LO:TX:t=P:problem:mixed beam	!	!LO:TX:t=P:problem:mixed beam	!	!	!
4B-/	.	4b-\	.	8BB-/L	.	8BB-/L	8.b-\L	.	8.dd\L
.	.	.	.	8B-\	.	8B-\	.	.	.
.	.	.	.	.	.	.	16cc\K	.	16ee-\Jk
4r	.	4r	.	8BB-/	.	8BB-/	8dd\	.	8ff\L
.	.	.	.	8B-\J	.	8B-\J	8dd\J	.	8ff\J
!LO:LB:g=original	!	!LO:LB:g=original	!	!	!	!	!	!	!
=30	=30	=30	=30	=30	=30	=30	=30	=30	=30
!	!	!	!	!LO:TX:t=P:problem:mixed beam	!	!LO:TX:t=P:problem:mixed beam	!	!	!
4B-/	.	4b-\	.	8E-\L	.	8E-\L	16ee-\LL	.	(16gg\LL
.	.	.	.	.	.	.	16dd\	.	16ff\
.	.	.	.	8F\	.	8F\	16ee-\	.	16gg\
.	.	.	.	.	.	.	16dd\JJ	.	16aa\JJ)
4r	.	4r	.	8BB-/	.	8BB-/	8dd\L	.	8bb-\L
.	.	.	.	8B-\J	.	8B-\J	8dd\J	.	8bb-\J
!	!	!	!	!	!	!	!	!	!LO:LB:g=original
=31	=31	=31	=31	=31	=31	=31	=31	=31	=31
4d/	.	4b-\	.	8C/L	.	8C/L	8dd\L	.	8ff\L
.	.	.	.	8E-/J	.	8E-/J	16ee-\L	.	16gg\L
.	.	.	.	.	.	.	16dd\JJ	.	16ff\JJ
!	!	!	!	!LO:TX:t=P:problem:mixed beam	!	!LO:TX:t=P:problem:mixed beam	!	!	!
4r	.	4r	.	8F\L	.	8F\L	16dd\LL	.	16ff\LL
.	.	.	.	.	.	.	16cc\	.	16ee-\
.	.	.	.	8FF/J	.	8FF/J	16b-\	.	16dd\
.	.	.	.	.	.	.	16f\JJ	.	16cc\JJ
=32	=32	=32	=32	=32	=32	=32	=32	=32	=32
4f/	.	4cc\	.	8BB-/L	.	8BB-/L	4e-/	.	4cc\
.	.	.	.	8FF/J	.	8FF/J	.	.	.
!LO:TX:b:i:t=Rondo Da Capo.	!	!LO:TX:b:i:t=Rondo Da Capo.	!	!LO:TX:b:i:t=Rondo Da Capo.	!	!LO:TX:b:i:t=Rondo Da Capo.	!LO:TX:b:i:t=Rondo Da Capo.	!	!LO:TX:b:i:t=Rondo Da Capo.
4d/	.	4b-\	.	4BBB-/	.	4BBB-/	4d/	.	4b-\
=:|!	=:|!	=:|!	=:|!	=:|!	=:|!	=:|!	=:|!	=:|!	=:|!
*-	*-	*-	*-	*-	*-	*-	*-	*-	*-
!!!system-decoration: [(s1,s2,s3,s4)][(s5,s6)]
!!!RDF**kern: | = vertical stroke
!!!AIN: 2 clars 2 empty 2 fagot
!!!ENC: Krzysztof Stępień
!!!END: 2021-06-18
!!!ENC: Andrzej Kubiczek
!!!END: 2021-06-24
